X: 1
T: Gan Ainm
M: 6/8
L: 1/8
R: jig
K: Bdor
fBB aBB|fec cBc|ABA cAc|efg a2g|
~f3 ~a3|fec cBc|Ace aga|1 fec Bce:|2 fec BcA||
|:fbb baf|abb baf|aba aec|Ace aga|
fbb fbb|eaa eaa|fec aba|1 fec Bce:|2 fec BcA||
